X: 5
T: The Ruined Old Cottage In The Glen
R: reel
M: 4/4
L: 1/8
K: Dmaj
B2AF DEFA|BdAd Bdef|dBAF DEFA|BdAF FE~E2:|Beed BddA|Beef gfed|Beed BddA|BdAF FE~E2|Beed BddA|Bdef ~g3a|b2af gefd|BdAF FE~E2||


Tune 557	Setting 15832

